X:1
T:Amor, la tua virtute
T:Amor, la tua virtute
T:Girolamo Scotto
T:Source : Seconde Libro delle Muse a tre voci---Venetia---G.Scotto---1562. Editor : André Vierendeels (01/06/16).
T:Notes : Original clefs : C2, C3, C4 Editorial accidentals above the staff Text by Lodovico Dolce "Quinti toni"
T:©
T:©
T:©
T:©
T:©
T:©
T:©
C:Girolamo Scotto
Z:©
%%score [ 1 2 3 ]
L:1/8
Q:1/4=95
M:4/4
K:F
V:1 treble nm="Alto" snm="A"
V:2 treble-8 nm="Tenor" snm="T"
V:3 bass nm="Bass" snm="B"
V:1
 z8 | z8 | F4 F4- | F2 C2 D2 E2 | F3 G A2 G2 | A2 D2 E3 F | G2 A2 B4 | A3 G E2 F2 | G2 A4 GF | %9
w: ||A- mor,|_ la tua vir-|tu- * * *|te, la tua _|_ vir- tu-|||
 E2 G3 F F2- | F2 ED E4 | F2 C2 C2 C2 | F6 F2 | D3 E F2 E2 | D4 C2 E2- | E2 A2 A3 G | A2 B3 A A2- | %17
w: ||te, non è dal|mond' et|del- la gent' in-|te- * sa,|_ non è _|dal mun- * *|
 A2 GF E2 A2- | A2 G2 F2 E2 | D4 C2 F2- | F2 E2 D2 C2- | C2 B,2 A,2 D2- | DC C4 B,2 | C4 B,2 A,2 | %24
w: * * * do'et dal-|* la gent' in-|te- sa, che|_ da vil- ta-|* * te of-|* * fe- *||
 G,2 C4 D2 | E2 F4 E2 | F4 C4 | z2 F2 F2 F2 | G2 G2 A3 G | F2 E3 D D2- | D2 C2 F4- | F2 E2 D2 F2 | %32
w: sa, of- fe-||* sa,|se- gue suo|dan- no'e fug- *|* ge _ sua|_ sa- lu-|* * te. Ma|
 F2 F2 E4 | D4 E2 A2 | A2 A2 G2 G2 | A2 A2 E2 G2- | G2 A4 G2- | GF F4 E2 | D2 G4 A2- | AG G4 F2 | %40
w: se tue lo-|* de, ma|se tue lo- de|fos- ser co- no-|* sciu- *||te, tra noi,|_ si co- me|
 G2 D2 D2 D2 | F4 E2 A2- | A2 G2 A2 F2 | G2 F4 E2 | F8 | z8 | z4 z2 F2 | F2 F2 A4- | A2 G2 F2 E2 | %49
w: la, do- ve ri|splen- de piu-|* del tuo vi-|vo rag- gi-|o,||drit-|to ca- mi-|* no e sag-|
 D3 E F2 G2 | A4 G4 | F2 E4 G2 | G2 G2 E2 G2- | GF F4 E2 | F2 A2 A2 A2 | A6 GF | E2 A4 G2 | A4 z4 | %58
w: gi- * * *||* o, drit-|to ca- mi- no|_ _ sag- gi-|o, drit- to ca-|mi- * *|no sag- gi-|o,|
 z8 | z2 F4 G2 | A2 B4 A2 | G2 F4 E2 | F2 A4 A2 | G2 A4 G2 | F2 E2 D4 | E2 G2 A2 G2 | G2 A2 B4 | %67
w: |pren- de-|ri- a no-|stra vi- *|ta, pren- de-|ri- a no-|stra vi- *|ta, pren- de- ri-|a no- stra|
 A2 A4 G2- | GF F4 E2 | F8 |] %70
w: vi- ta che|_ nol pren- *|de.|
V:2
 z8 | z8 | z8 | z8 | c4 c4- | c2 B2 c3 d | e2 f4 e2 | f2 c4 d2- | dc c4 B2 | c2 G2 A2 B2 | G8 | %11
w: ||||A- mor,|_ la tua _|_ vir- tu-|te, la tua|_ vir- tu _|te, la tua vir-|tu-|
 A8- | A4 z4 | z8 | z4 z2 c2 | c2 c2 f4- | f2 f2 d4- | d2 d2 c2 f2- | f2 e2 dc c2- | c2 B2 A2 B2 | %20
w: te,|_||non|è dal mond'|_ et del-|* la gent' in-|* te- * * *|* * sa, che|
 A2 G2 B2 G2 | A2 F4 F2 | B2 A4 GF | E2 G3 F F2- | F2 E2 F4 | G2 A2 G4 | F4 z2 A2 | B2 c2 d3 c | %28
w: da vil- ta- t'of-|fe- sa, che|da vil- ta- *|* t'of- * fe-|||sa, se-|gue suo dan- *|
 B2 c4 d2 | A2 c4 B2- | B2 AG A2 d2- | d2 c2 B2 A2- | A2 d3 c c2- | c2 B2 A3 B | c4 z2 c2 | %35
w: no'e fug- ge|sua sa- lu-|||||te, ma|
 c2 c2 c2 G2 | c3 B A2 B2- | B2 A3 B c2- | c2 B2 c2 A2 | =B2 c2 A2 A2 | G2 B2 B2 B2 | A2 d4 c2 | %42
w: se tue lo- de|fos- * ser co-|* no- * sciu-|* * te, tra|noi, si co- me|la, do- ve ri-|splen- * de,|
 B4 A2 B2- | B2 A2 G4 | F2 A3 B c2- | cd e2 f2 e2 | d2 c4 B2 | A2 d2 c2 f2- | f2 e2 d2 c2- | %49
w: do- ve ri-|* splen- *|de, piu _ _|_ _ _ del tuo|vi- vo ra-|* gi- o, del|_ tuo vi- vo|
 c2 B2 A2 G2- | GF F4 E2 | FGAB c2 d2 | _e3 d c2 B2 | A4 G4 | A2 c2 c2 c2 | A2 c4 B2 | c4 B4 | %57
w: _ rag- * *||||* gi-|o, drit- to ca-|mi- no e|sag- gio,|
 A3 B c2 B2 | c2 d4 c2 | B2 A4 c2- | c2 B2 d3 c | B2 A2 G4 | F2 c4 d2 | e2 f4 _e2 | d2 c4 B2 | %65
w: pren- * de- ri-|a no- stra|vi- ta, che|_ nol pren- *||de, pren- de-|ri- a no-|stra vi _|
 c2 e2 d4 | c2 f4 e2 | f3 e dc c2- | c2 BA G4 | A8 |] %70
w: ta, che nol|pren- de, che|nol _ _ _ pren-||de.-|
V:3
 F,4 F,4- | F,2 C,2 D,2 E,2 | F,3 G, A,2 B,2- | B,2 A,2 B,2 C2 | F,6 E,2 | F,2 G,2 C,2 C2- | %6
w: A- mor|_ la tua vir-|tu- * * *||te la|tua vir- tu- *|
 CB, A,2 G,4 | F,3 G, A,2 D,2 | E,2 F,2 D,4 | C,4 z4 | z2 C,2 C,2 C,2 | F,6 F,2 | %12
w: |* * te, la|tua vir- tu-|te,|non è dal|mond' et|
 E,F,D,G, A,2 B,2- | B,A,B,C D2 C2- | C2 B,2 A,4- | A,4 D,4- | D,8- | D,4 z2 D,2 | %18
w: de- * * * la _|_ _ _ _ _ gent'|_ in- te-|* sa,|_|* non|
"^-natural" D,2 E,2 F,2 C,2 | G,2 D,2 F,2 D,2 | C,4 G,2 E,2 | F,2 D,2 D,2 D,2 |"^b" E,2 F,2 D,4 | %23
w: è dal mond' et|del- la gent' in-|te- * *|* sa, che da|vil- ta- t'of-|
 C,4 D,4 | z8 | z8 | z2 D,2 E,2 F,2 | G,2 A,2 B,3 A, | G,2 E,2 F,2 D,2- | D,2 E,2 F,2 G,2 | %30
w: fe- sa,|||se- gue suo|dan- no'e fug- *|* ge sua sa-|* * lu- *|
"^-natural" _E,4 D,3 E, | F,G, A,2 D,4- | D,4 A,4 | z4 z2 F,2 | F,2 F,2 E,2 E,2 | F,2 F,2 C,3 D, | %36
w: ||* te,|ma|se tue lo- de|fos- ser co- *|
 E,2 F,4 _E,2 | D,4 C,4 | z2 G,2 C,2 F,2 | G,2 C,2 D,4 | E,2 G,2 G,2 G,2 | F,2 D,2 A,2 F,2 | %42
w: * no- *|sciu- te,|tra noi, si|co- * me|la, do- ve ri-|splen- * * *|
 G,4 D,4 | E,2 F,2 C,4 | z2 F,2 F,2 F,2 | A,6 G,2 | F,2 E,2 D,4 | D,3 E, F,4 | C,4 z4 | %49
w: |* * de,|piu del tuo|vi- *|* * vo|rag- * gi-|o,|
"^-natural" G,4 D,2 B,2 | A,2 C2 C2 C2 | A,2 C4 B,2 |"^b" C2 G,2 A,2 E,2 | F,4 C,4 | F,8 | %55
w: drit- to ca-|min', drit- to ca-|mi- no'e sag-|gi- o, sa- *|gi- *|o,|
 F,3 E, D,4 | C,2 F,2 G,4 |"^-natural" D,2 F,4 G,2 | A,2 B,4 A,2 | G,2 F,4 E,2 | F,2 G,2 F,2 D,2 | %61
w:    [sag- * gi-|o,] e sag-|gio, pren- de-|ri a no-|stra vi- ta,|che nol pren- *|
"^b" E,2 F,2 C,4 | F,8 | z4 z2 C,2 | D,2 E,2 F,2 G,2 | C,2 C4 B,2 | C2 A,2 G,4 | F,2 D,4 E,2 | %68
w: |de,|pren-|de- ri- a no-|stra vi- ta,|che nol pren-|de, che nol|
 F,4 C,4 | F,8 |] %70
w: pren- *|de.|

